icons/shopping_cart-24px.svg

<svg xmlns="http://www.w3.org/2000/svg" height="24" viewBox="0 0 24 24" width="24"><path d="M0 0h24v24H0V0z" fill="none"/><path d="M15.55 13c.75 0 1.41-.41 1.75-1.03l3.58-6.49c.37-.66-.11-1.48-.87-1.48H5.21l-.94-2H1v2h2l3.6 7.59-1.35 2.44C4.52 15.37 5.48 17 7 17h12v-2H7l1.1-2h7.45zM6.16 6h12.15l-2.76 5H8.53L6.16 6zM7 18c-1.1 0-1.99.9-1.99 2S5.9 22 7 22s2-.9 2-2-.9-2-2-2zm10 0c-1.1 0-1.99.9-1.99 2s.89 2 1.99 2 2-.9 2-2-.9-2-2-2z"/></svg>

<svg id="shopping_cart-24px" xmlns="http://www.w3.org/2000/svg" width="24" height="24" viewBox="0 0 24 24">
  <path id="Trazado_1" data-name="Trazado 1" d="M0,0H24V24H0Z" fill="none"/>
  <path id="Trazado_2" data-name="Trazado 2" d="M15.55,13a1.991,1.991,0,0,0,1.75-1.03l3.58-6.49A1,1,0,0,0,20.01,4H5.21L4.27,2H1V4H3l3.6,7.59L5.25,14.03A2,2,0,0,0,7,17H19V15H7l1.1-2ZM6.16,6H18.31l-2.76,5H8.53ZM7,18a2,2,0,1,0,2,2A2,2,0,0,0,7,18Zm10,0a2,2,0,1,0,2,2A2,2,0,0,0,17,18Z" fill="#21c063"/>
</svg>
